X:45
T:Stay All Night
M:4/4
R:reel
Q:1/2=120
L:1/8
K:A
AB|"A"cAAd cAAd|"A"cABc A4|"E"BABc B2Bc|"E"BAF2"A"E4|
"A"E2F2A4|"A"ABcd e2e2-|"A"efed "E"cAB2|"A"A4 A2:|
|:e2|"D"fede fede|"D"fefg a4|"A"efed cAdA|"A"e4 e4|
"D"fede fede|"D"fefg a2e2-|"A"efed "E"cAB2|"A"A4 A2:|
